X: 1143
T: Paddy Now Wont You Be Easy?
B:O'Neill's Music of Ireland
N:O'Neill's - 1143
Z:Transcribed by Stephen Foy (shf@access.digex.net)
Z:abc 1.6
M:9/8
R:slipjig
K:D
   DDD dcd BAF | DDD dcd B2 A | DDD dcd BAF | BEE EFA B2 A :|
|: ddd ded cBA | ded def g2 e | ddd dcd cBA | BEE EFA B2 A :|
|: dDD dcd BAF | dDD dcd B2 A | dDD dcd BAF | BEE EFA B2 A :|


